X:1
T:Colonel Robertson
M:6/8
L:1/8
Q:80
C:Trad
S:March 6/8
K:HP
|1 a |: | \
{fg}f3/2e/2d{g}A2{Gdc}d | \
{g}B/2{d}G3/2{d}B{G}A2{ag}a |
{fg}f3/2e/2d{g}A2{Gdc}d | \
{gcd}c2e{A}e2{ag}a | | \
{fg}f3/2e/2d{g}A2{Gdc}d |
{g}B/2{d}G3/2{d}B{G}A2{Gdc}d | \
{g}B/2{d}G3/2d{g}c/2{d}A3/2e | \
{Gdc}d3{gde}d2:|2 |
{fg}f3/2e/2d{g}A2{Gdc}d | \
{g}B/2{d}G3/2{d}B{G}A2{ag}a | \
{fg}f3/2e/2da3/2f/2d |
{gcd}c2e{A}e2{ag}a|]  |: \
{gf}g | \
{ag}a3/2f/2d{gfg}f2a |
{fg}f3/2e/2f{Gdc}d3/2e/2f | \
{gf}g3/2{a}f/2g{ef}e3/2c/2{d}A | \
{gf}g3/2{a}f/2g{ef}e2|1
{gf}g | \
{ag}a3/2f/2d{gfg}f2a | \
{g}a3/2f/2d{g}A2{Gdc}d |
{g}B/2{d}G3/2d{g}c/2{d}A3/2e | \
{Gdc}d3{gde}d2:|2
A |
{Gdc}d3/2f/2{g}A{g}e3/2g/2{a}A | \
{g}f/2a3/2f{Gdc}d2{e}A | \
{g}B/2{d}G3/2d{g}c/2{d}A3/2e |
{Gdc}d3{gde}d2 :: \
A | \
{Gdc}d3/2f/2{g}A{g}e3/2g/2{a}A | \
{g}f/2a3/2f{Gdc}d2f |
{g}e/2g3/2c{gBd}B2{G}A | \
{g}f/2a3/2f{gef}e2A | | \
{Gdc}d3/2f/2{g}A{g}e3/2g/2{a}A |
{g}f/2a3/2f{Gdc}d2A | \
{g}B/2{d}G3/2d{g}c/2{d}A3/2e | \
{Gdc}d3{gde}d2 :|
